Papirus/24x24/panel/system-file-manager-panel.svg

<?xml version="1.0" encoding="UTF-8" standalone="no"?>
<svg xmlns:dc="http://purl.org/dc/elements/1.1/" xmlns:cc="http://creativecommons.org/ns#" xmlns:rdf="http://www.w3.org/1999/02/22-rdf-syntax-ns#" xmlns:svg="http://www.w3.org/2000/svg" xmlns="http://www.w3.org/2000/svg" version="1.0" width="24" height="24" id="svg2817">
    <metadata id="metadata57">
        <rdf:RDF>
            <cc:Work rdf:about="">
                <dc:format>
                    image/svg+xml
                </dc:format>
                <dc:type rdf:resource="http://purl.org/dc/dcmitype/StillImage"/>
                <dc:title/>
            </cc:Work>
        </rdf:RDF>
    </metadata>
    <path id="rect4203" d="M 4.8007813,4 C 4.3575812,4 4,4.3575812 4,4.8007812 L 4,19.199219 C 4,19.642419 4.3575812,20 4.8007813,20 L 19.199219,20 C 19.642419,20 20,19.642419 20,19.199219 L 20,4.8007812 C 20,4.3575812 19.642419,4 19.199219,4 L 4.8007813,4 Z M 6.6738281,6 17.326172,6 C 17.699199,6 18,6.2406411 18,6.5390625 l 0,3.9218755 C 18,10.759359 17.699199,11 17.326172,11 L 6.6738281,11 C 6.3008015,11 6,10.759359 6,10.460938 L 6,6.5390625 C 6,6.2406411 6.3008015,6 6.6738281,6 Z M 10.25,8 C 10.111503,8 10,8.111503 10,8.25 l 0,0.5 C 10,8.888497 10.111503,9 10.25,9 l 3.5,0 C 13.888497,9 14,8.888497 14,8.75 l 0,-0.5 C 14,8.111503 13.888497,8 13.75,8 l -3.5,0 z M 6.6738281,13 17.326172,13 C 17.699199,13 18,13.240641 18,13.539063 l 0,3.921875 C 18,17.759358 17.699199,18 17.326172,18 L 6.6738281,18 C 6.3008015,18 6,17.759357 6,17.460938 L 6,13.539063 C 6,13.240641 6.3008015,13 6.6738281,13 Z M 10.25,15 C 10.111503,15 10,15.111503 10,15.25 l 0,0.5 c 0,0.138497 0.111503,0.25 0.25,0.25 l 3.5,0 C 13.888497,16 14,15.888497 14,15.75 l 0,-0.5 C 14,15.111503 13.888497,15 13.75,15 l -3.5,0 z" style="fill:#ffffff;fill-opacity:1"/>
</svg>

<?xml version="1.0" encoding="UTF-8" standalone="no"?>
<svg id="svg2817" xmlns:rdf="http://www.w3.org/1999/02/22-rdf-syntax-ns#" xmlns="http://www.w3.org/2000/svg" height="24" width="24" version="1.0" xmlns:cc="http://creativecommons.org/ns#" xmlns:dc="http://purl.org/dc/elements/1.1/">
 <metadata id="metadata57">
  <rdf:RDF>
   <cc:Work rdf:about="">
    <dc:format>image/svg+xml</dc:format>
    <dc:type rdf:resource="http://purl.org/dc/dcmitype/StillImage"/>
    <dc:title/>
   </cc:Work>
  </rdf:RDF>
 </metadata>
 <path id="rect4203" fill="#fff" d="m4.8008 4c-0.4432 0-0.8008 0.3576-0.8008 0.8008v14.398c0 0.443 0.3576 0.801 0.8008 0.801h14.398c0.443 0 0.801-0.358 0.801-0.801v-14.398c0-0.4434-0.358-0.801-0.801-0.801h-14.398zm1.873 2h10.652c0.373 0 0.674 0.2406 0.674 0.5391v3.9219c0 0.298-0.301 0.539-0.674 0.539h-10.652c-0.3732 0-0.674-0.241-0.674-0.539v-3.9219c0-0.2985 0.3008-0.5391 0.6738-0.5391zm3.5762 2c-0.138 0-0.25 0.1115-0.25 0.25v0.5c0 0.1385 0.112 0.25 0.25 0.25h3.5c0.138 0 0.25-0.1115 0.25-0.25v-0.5c0-0.1385-0.112-0.25-0.25-0.25h-3.5zm-3.5762 5h10.652c0.373 0 0.674 0.241 0.674 0.539v3.9219c0 0.298-0.301 0.539-0.674 0.539h-10.652c-0.3732 0-0.674-0.241-0.674-0.539v-3.922c0-0.298 0.3008-0.539 0.6738-0.539zm3.5762 2c-0.138 0-0.25 0.112-0.25 0.25v0.5c0 0.1385 0.1115 0.25 0.25 0.25h3.5c0.138 0 0.25-0.112 0.25-0.25v-0.5c0-0.138-0.112-0.25-0.25-0.25h-3.5z"/>
</svg>
